fs/battery_9_20_filled.svg

<svg viewBox="0 0 20 20" fill="none" xmlns="http://www.w3.org/2000/svg" height="1em" width="1em">
  <path d="M4.83436 6.94867C4.373 6.94867 3.99898 7.32269 3.99898 7.78405V12.1107C3.99898 12.572 4.37299 12.946 4.83436 12.946H12.1646C12.626 12.946 13 12.572 13 12.1107V7.78405C13 7.32269 12.626 6.94867 12.1646 6.94867H4.83436ZM2 7.5C2 6.11929 3.11929 5 4.5 5H13.5C14.8807 5 16 6.11929 16 7.5V8.33333L17.1667 8.3356C17.3184 8.3356 17.4608 8.37619 17.5833 8.4471C17.8324 8.59119 18 8.86052 18 9.16894V10.8356C18 11.144 17.8324 11.4134 17.5833 11.5574C17.4608 11.6284 17.3184 11.6689 17.1667 11.6689L16 11.6667V12.5C16 13.8807 14.8807 15 13.5 15H4.5C3.11929 15 2 13.8807 2 12.5V7.5Z" fill="#212121"/>
</svg>

<svg viewBox="0 0 20 20" fill="none" xmlns="http://www.w3.org/2000/svg" height="1em" width="1em">
  <path d="M4.834 6.949A.835.835 0 0 0 4 7.784v4.327c0 .461.374.835.835.835h7.33a.835.835 0 0 0 .836-.835V7.784a.835.835 0 0 0-.835-.835h-7.33ZM2 7.5A2.5 2.5 0 0 1 4.5 5h9A2.5 2.5 0 0 1 16 7.5v.833l1.167.003a.833.833 0 0 1 .833.833v1.667a.833.833 0 0 1-.833.833L16 11.667v.833a2.5 2.5 0 0 1-2.5 2.5h-9A2.5 2.5 0 0 1 2 12.5v-5Z" fill="#212121"/>
</svg>
